X:1
T:Trio Sonata I in Eb Major
T:I - Allegro
T:Johann Sebastian Bach (1685 - 1750)
T:BWV 525
%%score { 1 | 2 | 3 }
L:1/8
Q:1/4=75
M:4/4
K:Eb
V:1 treble nm="Organ" snm="Org."
V:2 treble 
V:3 bass 
V:1
"^Adagio" z8 | z8 | Bd f2 Be g2- | g/b/=a/g/ fe dc/d/ e/d/c/B/ | cc f2- f/e/d/e/ f/e/d/c/ | %5
 dd g2- gc d/e/f- | fB c/d/e e/G/A/c/ B/A/G/F/ | fd e2- e/g/f/e/ d/c/B/c/ | %8
 _d/A/G/F/ E/G/A/B/ c/B/A/G/ F/B/c/=d/ | e/c/B/A/ G/d/e/f/ B/e/f/g/ c/f/B/A/ | %10
 G2 z G F/A/d/c/ d/A/F/A/ | G/B/e/B/ G/B/E/G/ DF B2 | EG B2- B/c/=e/d/ e/B/G/B/ | %13
 =A/c/f/c/ A/c/F/A/ =EG c2 | F=A c2- c/d/^f/=e/ f/c/A/c/ | B/d/g/d/ B/d/G/B/ cF fe/d/ | %16
 c/F/G/=A/ B/c/d/e/ fd B2 | fd A2 fdGf | ec Gc/d/ ecFe | dB FB/c/ _dB=Ed | %20
 c/B/=A/G/ F/E/D/C/ DBCA | Bd f2 Be g2- | g/b/=a/g/ fe dc/d/ e/d/c/B/ | %23
 e/A/G/F/ E/G/A/B/ c/B/A/G/ F/B/c/d/ | e>f Pd>e eB e2- | e/d/c/d/ e/d/c/B/ cc f2- | %26
 f/e/d/e/ f/e/d/c/ _d/c/d/f/ e/d/c/B/ | c/B/c/e/ _d/c/B/A/ B/A/B/d/ c/B/A/G/ | %28
 A/G/A/c/ B/A/G/F/ _d4- | d/B/c/_d/ c/B/A/G/ Fc f2 | f/=A/B/c/ B/A/G/F/ B/A/B/_d/ c/B/_A/G/ | %31
 A/G/A/c/ B/A/G/F/ G/F/G/B/ A/G/F/=E/ | F/=E/D/C/ cB PA2 PG2 | F=A c2 FB _d2- | d/f/=e/g/ cB AfGe | %35
 f2 z f =eg c'2 | fa c'2 =eg c'2- | c'/b/a/g/ f/e/_d/c/ d/e/g/f/ g/e/d/e/ | %38
 c/e/a/g/ a/e/c/e/ B/_d/g/f/ g/d/B/d/ | c2 z A GB e2 | Ac e2 B/_d/g/f/ g/d/B/d/ | %41
 c/e/a/e/ c/e/A/G/ =Ac f2 | Bd f2 c/e/=a/g/ a/e/c/e/ | d/f/b/f/ d/f/B/=A/ =Bd g2 | %44
 ce a2- a/g/f/g/ a/g/f/e/ | d2 z/ d/e/f/ e/g/b/a/ b/g/e/g/ | _d/g/b/a/ b/g/d/g/ c/g/b/a/ b/g/c/g/ | %47
 c/f/a/g/ a/f/c/f/ B/f/a/g/ a/f/B/f/ | B/e/g/f/ g/e/B/e/ =A/e/_g/f/ g/e/A/e/ | %49
 B/c/d/e/ f2- f/B/G/B/ c/A/F/A/ | GE z G- G/F/G/B/ A/G/F/E/ | DF A2- A/F/G/B/ A/G/F/E/ | %52
 e4- ec d/e/f- | fB c/d/e- e/G/A/c/ B/A/G/F/ | fd e2- e/g/f/e/ d/c/B/c/ | %55
 _d/A/G/F/ E/G/A/B/ c/B/A/G/ F/B/c/=d/ | e/c/B/A/ G/d/e/f/ B/e/f/g/ c/f/B/A/ | %57
 G[Q:1/4=60]"^Adagio"eF[Q:1/4=48]"^Grave"d{d} e4 |] %58
V:2
 EG B2 EA c2- | c/e/d/c/ BPA GF/G/ A/G/F/E/ | F/E/D/C/ B,/D/E/F/ G/F/E/D/ C/F/G/=A/ | %3
 B>c =A>B BF B2- | B/A/G/A/ B/A/G/F/ GG c2- | c/B/=A/B/ c/B/_A/G/ A/G/A/c/ B/A/G/F/ | %6
 G/F/G/B/ A/G/F/E/ F/E/F/A/ G/F/E/D/ | E/D/C/B,/ BA PG2 PF2 | EG B2 EA c2- | c/e/d/c/ BA GeFd | %10
 E2 z E DF B2 | EG B2 F/A/d/c/ d/A/F/A/ | G/B/e/B/ G/B/E/D/ =EG c2 | F=A c2 G/B/=e/d/ e/B/G/B/ | %14
 =A/c/f/c/ A/c/F/=E/ ^FA d2 | GB e2- e/d/c/d/ e/d/c/B/ | =A2 z/ A/B/c/ B/d/f/e/ f/d/B/d/ | %17
 A/d/f/e/ f/d/A/d/ G/d/f/e/ f/d/G/d/ | G/c/e/d/ e/c/G/c/ F/c/e/d/ e/c/F/c/ | %19
 F/B/d/c/ d/B/F/B/ =E/B/_d/c/ d/B/E/B/ | F/G/=A/B/ c2- c/F/=E/F/ G/_E/C/E/ | D2 z2 z4 | z8 | %23
 EG B2 EA c2- | c/e/d/c/ BA PGF/G/ A/G/F/E/ | FF B2- B/A/G/A/ B/A/G/F/ | GG c2- cF G/A/B- | %27
 BE F/G/A- AG/F/ =E/F/G- | GF z A- A/G/A/c/ B/A/G/F/ | =EG B2 B/G/A/c/ B/A/G/F/ | f4- f_d =E/F/G- | %31
 GC D/=E/F- F/A,/B,/_D/ C/B,/A,/G,/ | G=E F2- F/A/G/F/ E/D/C/D/ | %33
 E/B/=A/G/ F/A/B/c/ _d/c/B/_A/ G/=e/f/g/ | f/_d/c/B/ A/B/c/G/ F/G/A/E/ _D/G/C/B/ | %35
 A/c/f/=e/ f/c/A/c/ G/B/_e/d/ e/B/G/B/ | A/c/f/=e/ f/c/A/c/ G/B/e/d/ e/B/G/B/ | A2 z A GB e2 | %38
 Ac e2 GB e2 | e/_d/c/B/ A/G/F/E/ _D/E/G/F/ G/D/B,/D/ | C/E/A/E/ C/E/A,/C/ G,B, E2 | %41
 A,C E2- E/F/=A/G/ A/E/C/E/ | D/F/B/F/ D/F/B,/D/ =A,C F2 | B,D F2- F/G/=B/=A/ B/F/D/F/ | %44
 E/G/c/G/ E/G/C/E/ FB, BA/G/ | F/B,/C/D/ E/F/G/A/ BG E2 | BG _D2 BGCB | AF CF/G/ AFB,A | %48
 GE B,E/F/ _GEA,G | F/E/D/C/[K:bass] B,/A,/G,/F,/ G,EF,[K:treble]B- | B/A/G/B/ A/G/F/E/ c4- | %51
 c/A/B/c/ B/A/G/F/ EB e2- | e/G/A/B/ A/G/F/E/ A/G/A/c/ B/A/G/F/ | %53
 G/F/G/B/ A/G/F/E/ F/E/F/A/ G/F/E/D/ | E/D/C/B,/ BA PG2 PF2 | EG B2 EA c2- | c/e/d/c/ BA G e2 d | %57
 e/d/c/B/ A/G/F/B/{A} G4 |] %58
V:3
 E,2 z/ G,/F,/G,/ C,2 z/ E,/D,/E,/ | A,,2 B,,2 E,,E,D,C, | D,F,D,B,, E,G,E,C, | %3
 D,E,F,F,, B,,2 z D, | F,2 z A, C,2 z E, | G,2 z B, C,E, A,2 | B,,E, G,2 A,,C,F,A,- | %7
 A,A,,G,,C, B,, B,2 A, | G,B,G,E, A,CA,F, | G,A,B,B,, E,2 z2 | E,,F,,G,,E,, B,,2 z D, | %11
 E,2 z G,, B,,2 z D, | E,2 z G, C,2 z =E, | F,2 z =A,, C,2 z =E, | F,2 z =A, D,2 z ^F, | %15
 G,2 z C B,=A,B,E, | F,F,,F,E, D,2 z D | C2 z C, =B,,2 z =B, | C2 z B,, =A,,2 z =A, | %19
 B,2 z A, G,2 z G,, | =A,,C,A,,F,, B,,D,E,F, | B,,2 z/ D,/C,/D,/ G,,2 z/ B,,/=A,,/B,,/ | %22
 E,,2 F,,2 B,, B,2 A, | G,B,G,E, A,CA,F, | G,A,B,B,, E,2 z G, | B,2 z D, F,2 z A, | %26
 C2 z E, F,2 z G, | A,2 z C, D,2 z =E, | F,,=A,, C,2 F,,B,, _D,2 | G,,B,,=E,C, F,2 z F,, | %30
 E,,2 z E, _D,F, B,2 | C,F, A,2 B,,_D,G,B,- | B,B,,A,,_D, C, C2 B, | A,CA,F, B,_DB,G, | %34
 A,B,C=E, F,_D,B,,C, | F,,G,,A,,F,, C,2 z =E, | F,2 z A, C2 z C, | F,G,A,F, B,2 z G, | %38
 A,2 z A,, E,2 z E,, | A,,B,,C,_D, E,2 z G,, | A,,2 z C, E,2 z G,, | A,,2 z C, F,2 z =A,, | %42
 B,,2 z D, F,2 z =A,, | B,,2 z D, G,2 z =B,, | C,2 z F, E,D,E,A,, | B,, B,2 A, G,2 z G,, | %46
 F,,2 z F, =E,2 z =E,, | F,,2 z E, D,2 z D,, | E,,2 z _D, C,2 z C,, | D,,F,D,B,, E,G,,A,,B,, | %50
 E,,G,, B,,2 E,,A,, C,2 | F,,A,,D,B,, E,2 z C | _D,2 z B, C,E, A,2 | B,,D, G,2 A,,C,F,A,- | %54
 A,A,,G,,C, B,, B,2 A, | G,B,G,E, A,CA,F, | G,A,B,D, E,C,A,,B,, | E,,G,, B,,2 E,,4 |] %58

